X: 3
T: Fun Tashlich  #2    [Em]
S: printed MS of unknown origin, "NB-15" at top before title
M: 2/4
L: 1/16
K: Em
"A"[|]"B7"z2 B,2 |\
"Em"E2E2 _BAG2 | "B7"FGAF "Em"G4 |\
FG^AB ^cded | ed^cB ^AGFD |\
"Em"E2E2 _BAG2 | "B7"FGAF "Em"G4 |
"G"GDEF "Dm"GE=FD | "Em"E4 :|\
"B"|: "D7"z2 (3def |\
"G"g2g2 =fedc | BdBd cBAG |\
"D7"ABcd BGAG | "G"^ced2 "D7"z2(3def |
"G"g2g2 =fedc | BdBd cBAG |\
"D7"ABcd BGAF | "G"G4 :|\
"C"|: "D7"zF GA |\
"Gm"_B2B2 Bd^cB | "A"A2A2 A4 |
"G"GDEF "Dm"GE=FD | "Em"E2G2 B2e2 |\
"Gm"_B2B2 Bd^cB | "A"A2A2 A4 |\
"G"GDEF "Dm"GE=FD | "Em"E4 :|

%%sep 1 1 500

